img/image/design/modal-img.svg

<svg xmlns="http://www.w3.org/2000/svg" fill="none" viewBox="0.37 0.35 48.26 68.29">
<path fill-rule="evenodd" clip-rule="evenodd" d="M22.3755 0.505693C20.8776 1.00173 19.5023 1.89956 18.4064 3.09613C17.3347 4.26654 17.14 4.36853 15.8681 4.42512C11.9414 4.60026 8.78358 7.90618 8.78358 11.8422C8.78358 14.6259 10.1117 16.9502 12.4008 18.1726C13.0558 18.5224 13.66 19.0528 13.7435 19.3513C13.8271 19.6501 13.9719 21.246 14.0652 22.8978L14.2352 25.9012L13.0675 25.9052C11.5882 25.91 10.7488 26.3391 9.98498 27.4796C9.22807 28.6105 9.21189 29.9208 9.93618 31.427C10.5417 32.6861 12.2469 33.9104 13.3953 33.9104C14.0045 33.9104 14.0673 34.0423 14.328 35.8636C14.6595 38.1815 15.6501 40.3098 17.0889 41.7963C18.1173 42.8588 18.1322 42.9031 18.1322 44.8982V46.9224L12.8943 48.8697C3.74886 52.2696 3.49638 52.378 2.40027 53.3728C0.513315 55.0851 0.375672 55.6855 0.369042 62.2229C0.364798 66.3487 0.453113 68.0667 0.681458 68.2965C1.14266 68.7608 47.8517 68.7608 48.3129 68.2965C48.5405 68.0675 48.6312 66.3546 48.6312 62.2811C48.6312 55.98 48.5049 55.3318 46.9601 53.7097C45.816 52.508 45.2797 52.2621 37.5587 49.3967L30.8622 46.9117V44.922C30.8622 42.9483 30.8715 42.9221 32.0228 41.6332C33.5398 39.9344 34.3197 38.2266 34.665 35.846C34.9265 34.0436 34.991 33.9104 35.5991 33.9104C36.7474 33.9104 38.4527 32.6861 39.0582 31.427C39.7825 29.9208 39.7663 28.6105 39.0094 27.4796C38.2456 26.3391 37.4062 25.91 35.9269 25.9052L34.7592 25.9012L34.9292 22.8978C35.0225 21.246 35.1673 19.6501 35.2509 19.3513C35.3344 19.0528 35.9386 18.5224 36.5936 18.1726C38.8826 16.9502 40.2108 14.6259 40.2108 11.8422C40.2108 7.90618 37.053 4.60026 33.1263 4.42512C31.8541 4.36853 31.6597 4.26654 30.5867 3.0948C28.9546 1.31222 27.2079 0.476326 24.895 0.370605C23.874 0.324152 22.7402 0.384754 22.3755 0.505693ZM27.585 3.20025C29.4105 4.25399 30.0666 5.3622 30.0666 7.39146C30.0666 9.0264 30.3594 9.61588 31.1712 9.61588C31.8021 9.61588 32.1882 8.81149 32.1882 7.49772C32.1882 6.44985 32.2182 6.41247 33.0502 6.41808C34.1839 6.42582 35.8571 7.223 36.749 8.18063C39.421 11.049 38.3944 15.3897 34.674 16.9547C33.6389 17.3899 33.3881 17.9193 33.1234 20.2281L32.9319 21.8966H24.4972H16.0625L15.871 20.2281C15.6063 17.9193 15.3555 17.3899 14.3203 16.9547C10.6 15.3897 9.57337 11.049 12.2454 8.18063C13.1372 7.223 14.8104 6.42582 15.9442 6.41808C16.7762 6.41247 16.8061 6.44985 16.8061 7.49772C16.8061 8.81149 17.1923 9.61588 17.8232 9.61588C18.635 9.61588 18.9278 9.0264 18.9278 7.39146C18.9278 5.3622 19.5839 4.25399 21.4094 3.20025C22.536 2.54964 23.0733 2.41268 24.4972 2.41268C25.9211 2.41268 26.4584 2.54964 27.585 3.20025ZM32.7187 24.8333V25.9012H24.4972H16.2757V24.8333V23.7655H24.4972H32.7187V24.8333ZM14.1541 29.9058C14.1541 31.2191 14.0469 32.0416 13.8756 32.0416C13.146 32.0416 11.9539 31.1171 11.6075 30.2825C11.0225 28.8726 11.8035 27.7962 13.4247 27.7781L14.1541 27.77V29.9058ZM32.6693 32.3753C32.5927 36.6154 32.5351 37.0847 31.9435 38.2949C31.1256 39.968 29.7192 41.3838 28.0571 42.2071C26.2136 43.1205 22.8089 43.1346 20.9978 42.2365C19.4086 41.4487 17.8044 39.8338 17.0218 38.2341C16.4654 37.0973 16.4006 36.5519 16.3251 32.3753L16.2415 27.77H24.4972H32.7529L32.6693 32.3753ZM36.7082 28.0432C37.5908 28.5186 37.8136 29.2541 37.3869 30.2825C37.0405 31.1171 35.8484 32.0416 35.1188 32.0416C34.9475 32.0416 34.8403 31.2191 34.8403 29.9058C34.8403 27.7911 34.847 27.77 35.5209 27.77C35.8951 27.77 36.4295 27.8929 36.7082 28.0432ZM24.4972 44.9471C25.9882 44.9471 27.0883 44.8008 27.746 44.5149L28.7405 44.0826V45.5344V46.9862L26.6189 48.06L24.4972 49.1338L22.3755 48.06L20.2539 46.9862V45.5344V44.0826L21.2484 44.5149C21.9061 44.8008 23.0062 44.9471 24.4972 44.9471ZM21.3497 50.7473L20.5191 51.2559V58.8684V66.4811H14.6946H8.86977L8.79366 64.0116L8.71728 61.5421H7.92165H7.12603L7.04965 64.0116L6.97353 66.4811H4.59647H2.21967V61.8657C2.21967 57.6083 2.26608 57.1582 2.81639 56.0652C3.14472 55.4132 3.78042 54.6681 4.22915 54.4091C4.67789 54.1502 8.19853 52.7563 12.0528 51.3117L19.0604 48.6855L20.6204 49.4621L22.1801 50.239L21.3497 50.7473ZM44.7602 54.415C46.4087 55.3841 46.6326 56.2019 46.7294 61.6089L46.8169 66.4811H44.4189H42.0209L41.9447 64.0116L41.8684 61.5421H41.0727H40.2771L40.2007 64.0116L40.1246 66.4811H31.2499H22.3755V59.4688V52.4565L26.1277 50.5733L29.8796 48.6903L36.9188 51.3168C40.7903 52.7614 44.3189 54.1555 44.7602 54.415ZM24.5635 57.4123C23.8904 57.6846 23.7756 58.5139 24.345 58.9896C24.5529 59.1634 25.2392 59.2681 25.8699 59.2224C26.8562 59.1511 27.0294 59.0481 27.1082 58.4869C27.2657 57.364 26.0017 56.8303 24.5635 57.4123ZM24.5635 62.7518C23.8904 63.0241 23.7756 63.8533 24.345 64.3291C24.5529 64.5029 25.2392 64.6075 25.8699 64.5619C26.8562 64.4906 27.0294 64.3875 27.1082 63.8264C27.2657 62.7035 26.0017 62.1698 24.5635 62.7518Z" fill="#9C8364"/>
</svg>

<svg xmlns="http://www.w3.org/2000/svg" fill="none" viewBox="0.37 0.35 48.26 68.29"><path fill-rule="evenodd" clip-rule="evenodd" d="M22.375.506a9.437 9.437 0 0 0-3.969 2.59c-1.071 1.17-1.266 1.273-2.538 1.33-3.927.174-7.084 3.48-7.084 7.416 0 2.784 1.328 5.108 3.617 6.33.655.35 1.259.88 1.342 1.18.084.298.229 1.894.322 3.546l.17 3.003-1.167.004c-1.48.005-2.32.434-3.083 1.575-.757 1.13-.773 2.44-.049 3.947.606 1.26 2.31 2.483 3.46 2.483.608 0 .671.132.932 1.954.332 2.318 1.322 4.446 2.76 5.932 1.03 1.063 1.044 1.107 1.044 3.102v2.024l-5.238 1.948C3.75 52.27 3.496 52.378 2.4 53.373.513 55.085.376 55.686.37 62.223c-.004 4.126.084 5.844.312 6.073.462.465 47.17.465 47.632 0 .227-.229.318-1.941.318-6.015 0-6.301-.126-6.95-1.67-8.571-1.145-1.202-1.681-1.448-9.402-4.313l-6.697-2.485v-1.99c0-1.974.01-2 1.16-3.289 1.518-1.699 2.298-3.406 2.643-5.787.261-1.802.326-1.936.934-1.936 1.148 0 2.854-1.224 3.46-2.483.724-1.506.707-2.817-.05-3.947-.763-1.14-1.603-1.57-3.082-1.575l-1.168-.004.17-3.003c.093-1.652.238-3.248.322-3.547.083-.298.688-.829 1.343-1.178 2.289-1.223 3.617-3.547 3.617-6.33 0-3.937-3.158-7.243-7.085-7.418-1.272-.056-1.466-.158-2.54-1.33C28.956 1.312 27.209.476 24.896.37c-1.021-.047-2.155.014-2.52.135Zm5.21 2.694c1.825 1.054 2.482 2.162 2.482 4.191 0 1.635.292 2.225 1.104 2.225.631 0 1.017-.805 1.017-2.118 0-1.048.03-1.086.862-1.08 1.134.008 2.807.805 3.699 1.763 2.672 2.868 1.645 7.209-2.075 8.774-1.035.435-1.286.964-1.55 3.273l-.192 1.669H16.063l-.192-1.669c-.265-2.309-.516-2.838-1.55-3.273-3.721-1.565-4.748-5.906-2.076-8.774.892-.958 2.565-1.755 3.7-1.763.831-.006.861.032.861 1.08 0 1.313.386 2.118 1.017 2.118.812 0 1.105-.59 1.105-2.225 0-2.029.656-3.137 2.481-4.19 1.127-.651 1.664-.788 3.088-.788 1.424 0 1.961.137 3.088.787Zm5.134 21.633v1.068H16.276v-2.135H32.719v1.067Zm-18.565 5.073c0 1.313-.107 2.136-.278 2.136-.73 0-1.922-.925-2.268-1.76-.585-1.41.195-2.486 1.817-2.504l.73-.008v2.136Zm18.515 2.47c-.076 4.24-.134 4.709-.725 5.919a8.687 8.687 0 0 1-3.887 3.912c-1.843.913-5.248.928-7.06.03-1.588-.788-3.193-2.403-3.975-4.003-.557-1.137-.621-1.682-.697-5.859l-.084-4.605h16.512l-.084 4.605Zm4.04-4.333c.882.476 1.105 1.211.678 2.24-.346.834-1.539 1.759-2.268 1.759-.172 0-.279-.823-.279-2.136 0-2.115.007-2.136.68-2.136.375 0 .91.123 1.188.273ZM24.496 44.947c1.491 0 2.591-.146 3.249-.432l.995-.432v2.903l-2.122 1.074-2.122 1.074-2.122-1.074-2.121-1.074v-2.903l.994.432c.658.286 1.758.432 3.25.432Zm-3.147 5.8-.83.509V66.48H8.87l-.076-2.47-.077-2.469H7.126l-.076 2.47-.076 2.47H2.22v-4.616c0-4.258.046-4.708.596-5.8.329-.653.964-1.398 1.413-1.657.449-.259 3.97-1.653 7.824-3.097l7.007-2.627 1.56.777 1.56.777-.83.508Zm23.41 3.668c1.649.97 1.873 1.787 1.97 7.194l.087 4.872H42.02l-.076-2.47-.077-2.469H40.277l-.076 2.47-.076 2.47h-17.75V52.455l3.753-1.883 3.752-1.883 7.039 2.627c3.871 1.444 7.4 2.839 7.841 3.098Zm-20.196 2.997c-.674.273-.788 1.102-.219 1.578.208.173.894.278 1.525.232.986-.07 1.16-.174 1.238-.735.158-1.123-1.106-1.657-2.544-1.075Zm0 5.34c-.674.272-.788 1.101-.219 1.577.208.174.894.279 1.525.233.986-.071 1.16-.174 1.238-.736.158-1.123-1.106-1.656-2.544-1.074Z" fill="#9C8364"/></svg>
